svgs/sharp-light/book-open-cover.svg

<svg xmlns="http://www.w3.org/2000/svg" viewBox="0 0 640 512"><!--! Font Awesome Pro 6.6.0 by @fontawesome - https://fontawesome.com License - https://fontawesome.com/license (Commercial License) Copyright 2024 Fonticons, Inc. --><path d="M96 373.8l208 41.6 0-350.1L96 36.7l0 337.1zm240 41.6l208-41.6 0-337.1L336 65.3l0 350.1zM576 0l0 32.3L576 400 320 451.2 64 400 64 32.3 64 0 96 4.4 320 35.2 544 4.4 576 0zM0 28.8l32 4.4 0 32.3L32 160l0 258.6 288 57.6 288-57.6L608 160l0-94.5 0-32.3 32-4.4 0 32.3 0 383.7-320 64L0 444.8 0 61.1 0 28.8z"/></svg>

<svg xmlns="http://www.w3.org/2000/svg" viewBox="0 0 640 512"><!--! Font Awesome Pro 6.5.2 by @fontawesome - https://fontawesome.com License - https://fontawesome.com/license (Commercial License) Copyright 2024 Fonticons, Inc. --><path d="M96 373.8l208 41.6V65.3L96 36.7V373.8zm240 41.6l208-41.6V36.7L336 65.3V415.4zM576 0V32.3 400L320 451.2 64 400V32.3 0L96 4.4 320 35.2 544 4.4 576 0zM0 28.8l32 4.4V65.5 160 418.6l288 57.6 288-57.6V160 65.5 33.2l32-4.4V61.1 444.8l-320 64L0 444.8V61.1 28.8z"/></svg>
